X:26
T:Hearty good fellow - hard
C:Taken down from Robt. Hard, Sth. Brent, Sept. 1889 by S.B.G.
%%VWML:SBG-1-1-142-0
F:http://www.vwml.org/record/SBG/1/1/142
Z:Original Sibleius Transcription by Martin and Shan Graebe
L:1/8
M:4/4
I:linebreak $
K:G
G2 | G2 B B B2 B B | B2 A3/2 G/ G2 G G | G2 B d d2 e d | d2 c B A2 z A |$ G2 B B d2 d d | 
e2 d c B3 B | d2 c B A2 G A | B2 A G E2 |: B B |$ B2 E E E2 F G | A2 B c d3 d | e2 d c B2 A G | 
E2 F2 G4 |] 
T:Hearty good fellow - kidson
T::Taken down in Yorkshire by F. Kidson.
L:1/4
M:3/4
I:linebreak $
K:D
A | A f f | f e f | d f d | B2 a | a f d | d f a | a g f | e2 z/ e/ | d f a |$ a ^g a | b a g | 
w: ||||||||||||
f2 a | b a g | f2 e | d f d | B3 |$ c e c | A3 | d f a | b2 b | a g f | e f d | B2 c | d3 |] 
w: ||||||||* And|I in my|pock- et had|one pen-|ny|


